!!!COM: Fe/licien David
!!!CNT: Francais
!!!TXO: Francais
!!!OTL: En Chemin!
!!!LYR: Emile Barateau
!!!ENC: Jacob Pegg
!!!YOR: Romantic French Song 1830-1870, David Tunley, ed., New York: Garland Publishing, Inc., 1995
!!!ODT: 1847/
!!NB: Vocal melody and text only encoded.
!!NB: First strophe only encoded.
**kern	**silbe
*clef G2	*
*k[f#c#]	*
*M2/4	*
=13	=13
{4b	{Voi-
8a#	-ci
8b	le
=14	=14
8dd	jour,
8r	.
4cc#	al-
=15	=15
4.b	-lons,
8f#	en
=16	=16
4g	rou-
8f#}	-te}
8r	.
=17	=17
{4dd	{De/-
8cc#	-pe^-
8b	-chons~
=18	=18
4a	~nous,
4gg	dou-
=19	=19
4.ff#	-blons
8ee	le
=20	=20
4.dd}	pas;}
8r	.
=21	=21
{4dd	{Plus
8cc#	d'un
8dd	a-
=22	=22
4ee	-mi
4ff#	m'at-
=23	=23
4.dd	-tend
8a	sans
=24	=24
4b	dou-
4a	-te,
=25	=25
4.dd	Tout
8cc#	la\-
=26	=26
4b}	-bas!}
4r	.
=27	=27
{4.dd	{Tout
8cc#	la\-
=28	=28
[2f#	-bas!
=29	=29
2f#_	|
=30	=30
2f#_	|
=31	=31
4f#]}	|}
4r	.
=32	=32
*k[f#c#g#d#a#]	*
2r	.
!!modified from 1r to correct timing error
=33	=33
{4f#	{Toi
4b	mon
=34	=34
4a#	coeur,
8b	es-
8cc#	-poir
=35	=35
4.dd#	et
8b	cou-
=36	=36
4ee	-ra-
8dd#}	-ge!}
8r	.
=37	=37
{4ff#	{Tu
4b	le
=38	=38
4a#	sais,
8cc#	je
8cc#	ve-
=39	=39
4.g#	-rai
8a#	de-
=40	=40
4.f#}	-main,}
8r	.
=41	=41
{4f#	{Le
4b	clo-
=42	=42
4a#	-cher
8b	qui
8cc#	vit
=43	=43
4.dd#	mon
8b	jeune
=44	=44
4gg	a^-}
8ff##	ge!..
8r	.
=45	=45
4.gg#	En
8cc#	che-
=46	=46
4cc#	-min!}
4r	.
=47	=47
4.ff#	En
8b	che-
=48	=48
2b}	-min!}
*-	*-
